**kern	**kern	**dynam
*part1	*part1	*part1
*staff2	*staff1	*
*I"Piano	*	*
*clefF4	*clefG2	*
*k[f#]	*k[f#]	*
=1	=1	=1
4.GG) 4.D	8r	pp
.	(8BL 8g	.
.	8dJ)	.
*^	*	*
[4.Gn	4.F#	8r	<
.	.	(8gL 8b	.
.	.	8dJ)	.
=	=	=	=
4.G]	4.E	8r	.
.	.	(8aL 8cc	.
.	.	8gJ)	.
[4.G	4.D	8r	[
.	.	(8bL 8dd	.
.	.	8gJ)	.
=	=	=	=
4.G]	2.C	8r	???
.	.	(8ddL 8ff#X	.
.	.	8gJ)	.
!	!	!LO:TX:b:i:t=dim.	!
[4.G	.	8r	.
.	.	4r	.
=	=	=	=
4.G]	2C	8r	.
.	.	(8ccL 8ee	.
.	.	8gJ)	.
[4.G	.	8r	.
*v	*v	*	*
.	4r	.
=	=	=
[4.GG 4.G_	[4.d [4.g [4.b [4.dd	pp
4GG] 4G]	4d] 4g] 4b] 4dd]	.
8r	8r	.
=	=	=
!	!LO:TX:b:i:t=calando	!LO:DY:a
4GG'~ 4D	4G'~ 4B 4d	ppp
8r	8r	.
4GG'~ 4D	4G'~ 4B 4d	ppp
8r	8r	.
=	=	=
2.GG; 2.D	2.G; 2.B 2.g	ppp
==	==	==
*-	*-	*-
!!!system-decoration: {(s1,s2)}
